Papirus/48x48/apps/microsoft-365.svg

<!-- Created with Inkscape (http://www.inkscape.org/) -->
<svg width="48" height="48" version="1.1" viewBox="0 0 48 48" xmlns="http://www.w3.org/2000/svg">
 <path d="m24.119804 5.0001486c-1.25034-0.02181-2.501184 0.287271-3.628082 0.923304l-0.0144 0.00724c-0.06804 0.03819-0.1368 0.08-0.20376 0.120724l-10.799901 6.5979814c-2.1559508 1.31719-3.4732136 3.675973-3.4732136 6.221334v12.251326c0 2.544524 1.3183428 4.903924 3.4733936 6.22155l0.3023962 0.18472c-0.018-0.0108-0.0378-0.018-0.05616-0.02908l3.3538738 2.04544 7.199935 4.403384c2.29192 1.401334 5.16106 1.401334 7.453084 0l10.799904-6.605076c2.08665-1.275844 3.38595-3.528446 3.466374-5.980062 0.0026-0.08036 0.0072-0.16072 0.0072-0.241452v-12.251328c0-2.545326-1.317298-4.904179-3.473392-6.221516l-10.799904-6.5979852c-1.110012-0.6781778-2.35668-1.0301022-3.607024-1.0511212zm-4.239788 1.3139196c-0.11592 0.081448-0.227518 0.168-0.337318 0.2556326 0.11016-0.088 0.221398-0.173828 0.337318-0.2556326zm4.120268 11.413255c1.290448 0 2.580998 0.351271 3.726542 1.051121l3.473394 2.123582v3.622118c0 2.544526-1.318378 4.903924-3.473394 6.221552l-3.726542 2.279798-3.72654-2.272706c-2.155013-1.317628-3.473392-3.677026-3.473392-6.221554v-3.629208l3.473392-2.123582c1.14551-0.69985 2.436098-1.051121 3.72654-1.051121z" style="opacity:.2"/>
 <path d="m20.475838 4.9310096-0.202322 0.12364c-0.321842 0.1967306-0.624713 0.4162992-0.907495 0.6564136l0.583313-0.4144092h4.950622l0.900008 6.883753-4.500006 4.545556-4.500041 3.159489v3.643244c0 2.544602 1.31664 4.90418 3.471691 6.221848l4.737356 2.8965-10.009027 5.89766h-1.930409l-3.5978728-2.19994c-2.1550874-1.317666-3.4716552-3.677248-3.4716552-6.221848v-12.251c0-2.545439 1.3174318-4.905637 3.4735992-6.223048l10.800025-6.598765c0.06696-0.040728 0.13428-0.08073 0.202322-0.118912z" style="fill:#1e73c7"/>
 <path d="m23.364698 31.64082-7.391409 4.127664c-2.209338 1.35083-4.253416 1.829656-6.5016338 0.57628l3.5978728 2.19994h1.292969l10.645315-5.897196z" style="opacity:.2"/>
 <path d="m31.200084 19.453188v4.073072c0 2.544602-1.316604 4.90418-3.471656 6.221848l-10.800061 6.603382c-2.209341 1.35083-4.958253 1.399558-7.2064734 0.14618l10.549678 6.450362c2.291962 1.401376 5.16475 1.401376 7.45682 0l10.800026-6.603456c2.155052-1.317664 3.471582-3.677246 3.471582-6.221844v-2.942252l-0.900008-1.36363z" style="fill:#8762b5"/>
 <path d="m38.52651 11.647741-10.800062-6.5988016c-2.220032-1.3564302-4.98457-1.3984674-7.238406-0.1261846l-0.214562 0.1312758c-2.156167 1.317411-3.473563 3.6775726-3.473563 6.2230114v8.621901l3.473563-2.122411c2.291026-1.39974 5.161836-1.39974 7.452968 0l10.800062 6.598764c2.088702 1.276284 3.3904 3.53106 3.469676 5.984826 0.0026-0.07928 0.0036-0.15854 0.0036-0.238186v-12.251038c0-2.545403-1.317432-4.905637-3.473564-6.223012z" style="fill:#4aafe8"/>
 <path d="m31.199218 19.897507v1.000001l7.328126 4.476562c1.939052 1.18484 3.199574 3.213218 3.433594 5.460938 0.0168-0.17252 0.02668-0.344768 0.03126-0.519532-0.0931-2.436954-1.388442-4.672638-3.464844-5.941406z" style="opacity:.1"/>
 <path d="m24.117188 3.9990704c-1.25034-0.02181-2.498104 0.2897494-3.625 0.9257812l-0.0156 0.0039c-0.06804 0.03819-0.13616 0.08037-0.203126 0.121094l-10.800806 6.5976624c-2.1559464 1.317187-3.4726562 3.677301-3.4726562 6.222656v1c0-2.545355 1.3167098-4.905469 3.4726562-6.222656l10.800782-6.5976564c0.06696-0.040724 0.13508-0.082904 0.203124-0.121094l0.0156-0.0039c1.126902-0.6360376 2.378576-0.9475972 3.628912-0.9257872 1.25034 0.02102 2.49546 0.3726052 3.605468 1.0507812l10.800802 6.5976564c2.156088 1.317333 3.472656 3.677335 3.472656 6.222656v-1c0-2.545321-1.316566-4.905322-3.472656-6.222656l-10.800782-6.5976564c-1.110008-0.6781762-2.355128-1.0297622-3.605468-1.0507812zm-7.316407 19.53125v1c0 2.544524 1.317648 4.905032 3.472657 6.222656l2.90625 1.773438 0.816406-0.5-3.722656-2.273438c-2.155009-1.317624-3.472657-3.678132-3.472657-6.222656z" style="fill:#ffffff;opacity:.2"/>
</svg>

<svg xmlns="http://www.w3.org/2000/svg" width="48" height="48" version="1.1">
 <path style="opacity:0.2" d="M 24.119,5 C 22.864,5 21.615,5.2877 20.488,5.9238 L 9.4727,12.65 C 7.3165,13.967 6,16.327 6,18.873 V 31.123 C 6,33.668 7.3176,36.028 9.4727,37.346 L 20.271,43.949 C 22.563,45.35 25.437,45.35 27.729,43.949 L 38.527,37.346 C 40.627,36.063 41.928,33.789 41.994,31.32 41.995,31.334 41.996,31.348 41.996,31.361 41.999,31.282 42,31.203 42,31.123 V 18.871 C 42,16.326 40.683,13.966 38.527,12.648 L 27.727,6.0488 C 26.617,5.3706 25.372,5 24.119,5 Z M 24,18 C 25.299,18.014 26.593,18.415 27.752,19.092 L 31.199,21.104 V 24.527 C 31.199,27.072 29.884,29.43 27.729,30.748 L 23.998,33.029 20.271,30.752 C 18.116,29.434 17,27.189 17,24.645 V 21.002 L 20.299,19.092 C 21.462,18.419 22.701,17.986 24,18 Z"/>
 <path style="fill:#1e73c7" d="M 20.27,5.06 25,5 V 12 L 21,17 17,20 V 23.64 C 17,26.19 18.12,28.43 20.27,29.75 L 25.01,32.65 15,38.55 H 13.07 L 9.47,36.35 C 7.32,35.03 6,32.67 6,30.12 V 17.87 C 6,15.33 7.32,12.97 9.47,11.65 Z"/>
 <path style="fill:#8762b5" d="M 31,19 V 23.586 C 31,26.131 29.893,28.447 27.728,29.749 L 19,35 C 16.609,36.439 11.97,37.752 9.7219,36.499 L 20.272,42.949 C 22.564,44.35 25.436,44.35 27.728,42.949 L 38.528,36.345 C 40.683,35.028 42,32.668 42,30.124 V 27 L 41,25 Z"/>
 <path style="fill:#4aafe8" d="M 27.726,5.0498 C 25.506,3.6934 22.742,3.6514 20.488,4.9237 L 20.273,5.0549 C 18.117,6.3723 17,8.7689 17,11.314 V 20 L 20.299,18.091 C 21.462,17.418 22.701,16.986 24,17 25.299,17.014 26.593,17.414 27.752,18.091 L 38.527,24.376 C 40.641,25.609 41.917,27.907 41.996,30.361 L 42,30.123 V 17.872 C 42,15.326 40.682,12.966 38.526,11.649 Z"/>
 <path style="opacity:0.2" d="M 31 19.986 L 31 20.986 L 38.527 25.377 C 40.494 26.524 41.734 28.591 41.961 30.85 C 41.978 30.675 41.989 30.498 41.994 30.32 C 41.902 27.882 40.63 25.603 38.527 24.377 L 31 19.986 z"/>
 <path style="opacity:0.2;fill:#ffffff" d="M 24.119 4 C 22.864 4 21.615 4.2877 20.488 4.9238 L 9.4727 11.65 C 7.3165 12.967 6 15.327 6 17.873 L 6 18.873 C 6 16.327 7.3165 13.967 9.4727 12.65 L 20.488 5.9238 C 21.615 5.2877 22.864 5 24.119 5 C 25.372 5 26.617 5.3706 27.727 6.0488 L 38.527 12.648 C 40.683 13.966 42 16.326 42 18.871 L 42 17.871 C 42 15.326 40.683 12.966 38.527 11.648 L 27.727 5.0488 C 26.617 4.3706 25.372 4 24.119 4 z M 17 23.645 L 17 24.645 C 17 27.189 18.116 29.434 20.271 30.752 L 23.143 32.508 L 23.969 32.012 L 20.271 29.752 C 18.116 28.434 17 26.189 17 23.645 z M 28.701 29.031 C 28.399 29.294 28.076 29.536 27.729 29.748 C 28.082 29.535 28.404 29.294 28.701 29.031 z"/>
</svg>
